X: 10261
T: Tell me where is fancy bred
C: Carr
Q:
B: "Man of Feeling", Gaetano Brandi, ed. v.1 p.26-27
F: http://archive.org/details/manoffeelingorge00rugg
Z: 2012 John Chambers <jc:trillian.mit.edu>
M: 6/8
L: 1/8
K: G
%%continueall
[|\
d2 c B2 c | B2 A G2 d |
w: Tell me where is fan-cy bred, Or
d2 c B2 c | B2 A G2 z | d2 d d2 e |
w: in the heart or in the head, How be-got how
f d z z2 z | A2 A A2 A | F D z z2 A |
w: nour-ish'd How be-got how nour-ish'd re-
d2 z z2 d | f2 z z2 z | f a f d2 A |
w: ply re-ply, Is it en-gen-der'd
F2 E D2 A | A2 B c2 d | e2 c A2 z |
w: In the eyes, with gaz-ing fed and fan-cy dies
% p:27
A2 A B2 c | d2 B G2 z | G2 G G2 G |
w: In the Cra-dle where it lies, Let us all ring
e2 d d2 z |[M:C] "^Recit"c3 B B B z2 ][[M:6/8] "^a tempo"d2 B G2 z |
w: fan-cy's Knell, I'll be-gin it, Ding dong bell,
e2 c A2 g | f2 e d2 c | B2 A G2 g |
w: ding dong bell, ding ding ding ding ding ding dong bell, ding
d2 e B2 c | d2 A G2 z & x3 x2g | f2z/e/ d2z/c/ |
w: ding ding ding ding ding dong bell.
B2z/A/ G2z/G/ | c2A d2D | G3 z2z |]
%
%%center -

% Continuation of previous page.

%%sep 2 1 500
%%sep 1 1 500

